X:6
T:Parsons farewell
N:Playford Ball
N:Cecil Sharp, 1911
P:(AABB)3
M:C|
L:1/8
Q:200
K:Dm
f2d2d2ef|g2c2c2>c2|de fed|1 c2A2A4:|2 A2A4 a2
|:f4f2a2|f4f2a2|fga2 fga2|g2e2e4|efg2 efg2|f2d2 defg|a2 gf edd2|1 d6a2:|2 d8||

